X:1
T:Title
%%score { ( 1 3 4 ) | ( 2 5 ) }
L:1/8
M:12/8
K:E
V:1 treble nm="Grand Piano"
V:3 treble 
V:4 treble 
V:2 bass 
V:5 bass 
V:1
 z6 z3 G2 F | z3 B,2 C B,2 F G2 A | A G2- G6 B2 ^A | B6- B2 z z3 |[M:9/8] F3 F6 |[M:3/8] z3 | %6
[M:6/4] z2 z B,2 C B,2 F G2 A | AG- G4- G3 B2 c | .B12 |[M:9/8] E6- E2 z |[M:3/8] B,2 G, | %11
[M:6/4] z2 z B2 ^A B2 B =A2 G | GB- B4- B3 B,2 G, | z2 z B2 ^A B2 B c2 e | d3 c3 B2 A G2 F | %15
 z2 z B,2 C B,2 F G2 A | AG- G4- G3 B2 c | .B12 |[M:9/8] E8- E |] %19
V:2
 z12 | z3 G,2 A, G,2 [A,B,] [B,E]2[K:treble] [CE] | [CE] [B,E]2- [B,E]6 z3 | %3
 z3 E2 F E2 [EA] [EG]2 [B,E] |[M:9/8] .[B,D]3 z3 B,3 |[M:3/8] G2 F | %6
[M:6/4] .E12[K:bass][K:treble] | [CE][B,E]- [B,E]4- [B,E]3 z z2 | %8
 z2 z[K:bass] G,2 A, B,2 C [B,E]2 [A,B,] |[M:9/8] [G,B,]6- [G,B,]2 z |[M:3/8] z3 | %11
[M:6/4] z2 z[K:treble] G2 =G ^G2 [DF] [CE]2 [B,E] | [B,E][G,E]- [G,E]4- [G,E]3 z z2 | %13
 z2 z G2 =G ^G2 [DF] [CE]2 [CF] | B3 A3 G2 .F4 | %15
 z2 z[K:bass] G,2 A, G,2 [A,B,] [B,E]2[K:treble] [CE] | [CE][B,E]- [B,E]4- [B,E]3 z z2 | %17
 z2 z[K:bass] G,2 A, B,2 C [B,E]2 [A,B,] |[M:9/8] [G,B,]8- [G,B,] |] %19
V:3
 x12 | E6- E2 z z3 | x12 | z3 G2 A G2 c B2 G |[M:9/8] z3 z2 D- D3 |[M:3/8] x3 |[M:6/4] x12 | x12 | %8
 z2 z E2 F G2 E G2 F |[M:9/8] x9 |[M:3/8] x3 |[M:6/4] .E12 | x12 | .E12 | x12 | .E12 | x12 | %17
 z2 z E2 F G2 E G2 F |[M:9/8] x9 |] %19
V:4
 x12 | x12 | x12 | x12 |[M:9/8] z2 D- D2 z z3 |[M:3/8] x3 |[M:6/4] x12 | x12 | x12 |[M:9/8] x9 | %10
[M:3/8] x3 |[M:6/4] x12 | x12 | x12 | x12 | x12 | x12 | x12 |[M:9/8] x9 |] %19
V:5
 x12 | x11[K:treble] x | x12 | x12 |[M:9/8] x9 |[M:3/8] x3 | %6
[M:6/4] z2 z[K:bass] G,2 A, G,2 [A,B,] [B,E]2[K:treble] [CE] | x12 | x3[K:bass] x9 |[M:9/8] x9 | %10
[M:3/8] x3 |[M:6/4] x3[K:treble] x9 | x12 | x12 | B,12 | x3[K:bass] x8[K:treble] x | x12 | %17
 x3[K:bass] x9 |[M:9/8] x9 |] %19

